flaticon/technology/iphone-2.svg

<svg xmlns="http://www.w3.org/2000/svg" width="32" height="32" viewBox="0 0 24 24">
    <path d="M8.199219 6C8.300781 6 8.40625 5.960938 8.484375 5.882812L10.082031 4.28125C10.238281 4.125 10.238281 3.875 10.082031 3.71875 9.925781 3.5625 9.671875 3.5625 9.515625 3.71875L7.917969 5.316406C7.761719 5.472656 7.761719 5.726562 7.917969 5.882812 7.996094 5.960938 8.097656 6 8.199219 6zM8.199219 8C8.300781 8 8.40625 7.960938 8.484375 7.882812L9.28125 7.082031C9.4375 6.925781 9.4375 6.671875 9.28125 6.515625 9.125 6.359375 8.875 6.359375 8.71875 6.515625L7.917969 7.316406C7.761719 7.472656 7.761719 7.726562 7.917969 7.882812 7.996094 7.960938 8.097656 8 8.199219 8zM9.515625 5.714844C9.445312 5.792969 9.398438 5.894531 9.398438 6 9.398438 6.105469 9.445312 6.207031 9.515625 6.285156 9.59375 6.355469 9.695312 6.398438 9.800781 6.398438 9.902344 6.398438 10.007812 6.355469 10.085938 6.285156 10.15625 6.207031 10.199219 6.105469 10.199219 6 10.199219 5.890625 10.15625 5.792969 10.085938 5.714844 9.9375 5.566406 9.667969 5.566406 9.515625 5.714844zM10.316406 5.484375C10.394531 5.5625 10.496094 5.601562 10.601562 5.601562 10.703125 5.601562 10.804688 5.5625 10.882812 5.484375L12.082031 4.28125C12.238281 4.125 12.238281 3.875 12.082031 3.71875 11.925781 3.5625 11.671875 3.5625 11.515625 3.71875L10.316406 4.917969C10.160156 5.074219 10.160156 5.328125 10.316406 5.484375zM11.515625 5.71875L7.917969 9.316406C7.761719 9.472656 7.761719 9.726562 7.917969 9.882812 7.996094 9.960938 8.097656 10 8.199219 10 8.300781 10 8.40625 9.960938 8.484375 9.882812L12.082031 6.28125C12.238281 6.125 12.238281 5.875 12.082031 5.71875 11.925781 5.5625 11.671875 5.5625 11.515625 5.71875zM12.316406 4.914062C12.242188 4.992188 12.199219 5.097656 12.199219 5.199219 12.199219 5.304688 12.242188 5.40625 12.316406 5.484375 12.390625 5.554688 12.496094 5.601562 12.601562 5.601562 12.703125 5.601562 12.808594 5.554688 12.882812 5.484375 12.957031 5.40625 13 5.304688 13 5.199219 13 5.097656 12.957031 4.992188 12.882812 4.921875 12.734375 4.769531 12.464844 4.769531 12.316406 4.914062zM13.515625 3.71875L13.117188 4.117188C12.960938 4.273438 12.960938 4.527344 13.117188 4.683594 13.195312 4.761719 13.296875 4.800781 13.398438 4.800781 13.503906 4.800781 13.605469 4.761719 13.683594 4.683594L14.082031 4.28125C14.238281 4.125 14.238281 3.875 14.082031 3.71875 13.925781 3.5625 13.671875 3.5625 13.515625 3.71875zM13.515625 3.71875"/>
    <path d="M 17.820312 0 L 6.578125 0 C 5.929688 0 5.398438 0.527344 5.398438 1.179688 L 5.398438 3.601562 C 5.179688 3.601562 5 3.777344 5 4 L 5 4.398438 C 5 4.621094 5.179688 4.800781 5.398438 4.800781 L 5.398438 5.199219 C 5.179688 5.199219 5 5.378906 5 5.601562 L 5 6 C 5 6.222656 5.179688 6.398438 5.398438 6.398438 L 5.398438 6.800781 C 5.179688 6.800781 5 6.980469 5 7.199219 L 5 7.601562 C 5 7.820312 5.179688 8 5.398438 8 L 5.398438 22.820312 C 5.398438 23.472656 5.929688 24 6.578125 24 L 17.820312 24 C 18.472656 24 19 23.472656 19 22.820312 L 19 1.179688 C 19 0.527344 18.472656 0 17.820312 0 Z M 12.199219 21.199219 C 12.640625 21.199219 13 21.558594 13 22 C 13 22.441406 12.640625 22.800781 12.199219 22.800781 C 11.757812 22.800781 11.398438 22.441406 11.398438 22 C 11.398438 21.558594 11.757812 21.199219 12.199219 21.199219 Z M 18.199219 22.820312 C 18.199219 23.03125 18.03125 23.199219 17.820312 23.199219 L 13.246094 23.199219 C 13.582031 22.90625 13.800781 22.480469 13.800781 22 C 13.800781 21.519531 13.582031 21.09375 13.246094 20.800781 L 17.800781 20.800781 L 17.800781 2.398438 L 6.601562 2.398438 L 6.601562 20.800781 L 11.152344 20.800781 C 10.816406 21.09375 10.601562 21.519531 10.601562 22 C 10.601562 22.480469 10.816406 22.90625 11.152344 23.199219 L 6.578125 23.199219 C 6.371094 23.199219 6.199219 23.03125 6.199219 22.820312 L 6.199219 1.179688 C 6.199219 0.96875 6.371094 0.800781 6.578125 0.800781 L 17.820312 0.800781 C 18.03125 0.800781 18.199219 0.96875 18.199219 1.179688 Z M 7.398438 20 L 7.398438 3.199219 L 17 3.199219 L 17 20 Z M 7.398438 20"/>
    <path d="M 13 1.199219 L 11 1.199219 C 10.777344 1.199219 10.601562 1.378906 10.601562 1.601562 C 10.601562 1.820312 10.777344 2 11 2 L 13 2 C 13.222656 2 13.398438 1.820312 13.398438 1.601562 C 13.398438 1.378906 13.222656 1.199219 13 1.199219 Z M 13 1.199219"/>
</svg>

<svg xmlns="http://www.w3.org/2000/svg" width="32" height="32" viewBox="0 0 24 24">
    <path d="M8.2 6c.1 0 .206-.04.284-.117l1.598-1.602a.396.396 0 0 0 0-.562.4.4 0 0 0-.566 0L7.918 5.316A.4.4 0 0 0 8.199 6zm0 0M8.2 8c.1 0 .206-.04.284-.117l.797-.801a.4.4 0 0 0 0-.566.396.396 0 0 0-.562 0l-.801.8A.4.4 0 0 0 8.199 8zm0 0M9.516 5.715A.434.434 0 0 0 9.398 6c0 .105.047.207.118.285a.43.43 0 0 0 .285.113.438.438 0 0 0 .285-.113.43.43 0 0 0 .113-.285.423.423 0 0 0-.113-.285.42.42 0 0 0-.57 0zm0 0M10.316 5.484a.399.399 0 0 0 .567 0l1.199-1.203a.396.396 0 0 0 0-.562.4.4 0 0 0-.566 0l-1.2 1.199a.4.4 0 0 0 0 .566zm0 0M11.516 5.719L7.918 9.316a.4.4 0 0 0 .566.567l3.598-3.602a.396.396 0 0 0 0-.562.4.4 0 0 0-.566 0zm0 0M12.316 4.914a.423.423 0 0 0-.117.285c0 .106.043.207.117.285.075.07.18.118.286.118a.424.424 0 0 0 .28-.118A.416.416 0 0 0 13 5.2a.39.39 0 0 0-.117-.277.416.416 0 0 0-.567-.008zm0 0M13.516 3.719l-.399.398a.4.4 0 0 0 .567.567l.398-.403a.396.396 0 0 0 0-.562.4.4 0 0 0-.566 0zm0 0"/>
    <path d="M17.82 0H6.578c-.648 0-1.18.527-1.18 1.18v2.422A.398.398 0 0 0 5 4v.398c0 .223.18.403.398.403v.398A.401.401 0 0 0 5 5.602V6c0 .223.18.398.398.398v.403A.4.4 0 0 0 5 7.199v.403A.4.4 0 0 0 5.398 8v14.82c0 .653.532 1.18 1.18 1.18H17.82c.653 0 1.18-.527 1.18-1.18V1.18C19 .527 18.473 0 17.82 0zM12.2 21.2a.802.802 0 0 1 0 1.6.802.802 0 0 1 0-1.6zm6 1.62c0 .211-.169.38-.38.38h-4.574c.336-.294.555-.72.555-1.2s-.219-.906-.555-1.2h4.555V2.399H6.6v18.403h4.551c-.336.293-.55.719-.55 1.199 0 .48.214.906.55 1.2H6.578a.38.38 0 0 1-.379-.38V1.18A.38.38 0 0 1 6.58.8H17.82c.211 0 .38.169.38.38zM7.397 20V3.2H17V20zm0 0"/>
    <path d="M13 1.2h-2a.398.398 0 0 0-.398.402c0 .218.175.398.398.398h2c.223 0 .398-.18.398-.398A.398.398 0 0 0 13 1.199zm0 0"/>
</svg>
